**kern	**silbe	**kern	**silbe	**harmony	**phrase	**leadinstrument	**rhyme	**timestamp	**harte
*ICvox	*	*ICvox	*	*M4/4	*	*	*	*	*M4/4
*VRlead	*	*VRharmonize	*	*	*	*	*	*	*
*Hstimme	*	*Nstimme	*	*	*	*	*	*	*
*C:	*	*C:	*	*C:	*	*	*	*	*C:
*M4/4	*	*M4/4	*	*	*	*	*	*	*
*clefF4	*	*clefG2	*	*	*	*	*	*	*
r;	.	r;	.	1r;	.	r	.	0	N.C.
=1	=1	=1	=1	=1	=1	=1	=1	=1	=1
*>Letter>A	*>Letter>A	*>Letter>A	*>Letter>A	*>Letter>A	*>Letter>A	*>Letter>A	*>Letter>A	*>Letter>A	*>Letter>A
*>Label>Intro	*>Label>Intro	*>Label>Intro	*>Label>Intro	*>Label>Intro	*>Label>Intro	*>Label>Intro	*>Label>Intro	*>Label>Intro	*>Label>Intro
1r	.	1r	.	2.N	newline	r	.	0.348	N.C.
.	.	.	.	4GMm	.	r	.	0.731	G:7
=2	=2	=2	=2	=2	=2	=2	=2	=2	=2
1r	.	8C	Jit-	1CMm	newline	.	.	0.859	C:7
.	.	8C	-ter-	.	.	.	.	.	.
.	.	4C	-bug	.	.	.	.	.	.
.	.	2r	.	.	.	.	.	.	.
=3	=3	=3	=3	=3	=3	=3	=3	=3	=3
1r	.	1r	.	1N	.	.	.	2.334	N.C.
=4	=4	=4	=4	=4	=4	=4	=4	=4	=4
1r	.	8C	Jit-	1CMm	.	.	.	3.808	C:7
.	.	8C	-ter-	.	.	.	.	.	.
.	.	4C	-bug	.	.	.	.	.	.
.	.	2r	.	.	.	.	.	.	.
=5	=5	=5	=5	=5	=5	=5	=5	=5	=5
1r	.	1r	.	1N	.	.	.	5.283	N.C.
=6	=6	=6	=6	=6	=6	=6	=6	=6	=6
1r	.	8C	Jit-	1CMm	.	.	.	6.757	C:7
.	.	8C	-ter-	.	.	.	.	.	.
.	.	4C	-bug	.	.	.	.	.	.
.	.	2r	.	.	.	.	.	.	.
=7	=7	=7	=7	=7	=7	=7	=7	=7	=7
1r	.	1r	.	1N	.	.	.	8.231	N.C.
=8	=8	=8	=8	=8	=8	=8	=8	=8	=8
1r	.	8C	Jit-	1CMm	.	.	.	9.706	C:7
.	.	8C	-ter-	.	.	.	.	.	.
.	.	4C	-bug	.	.	.	.	.	.
.	.	2r	.	.	.	.	.	.	.
=9	=9	=9	=9	=9	=9	=9	=9	=9	=9
2r	.	1r	.	1N	.	.	.	11.18	N.C.
8r	.	.	.	.	.	.	.	.	.
8G	You	.	.	.	.	.	.	.	.
8A	put	.	.	.	.	.	.	.	.
8G	the	.	.	.	.	.	.	.	.
=10	=10	=10	=10	=10	=10	=10	=10	=10	=10
*>Letter>B	*>Letter>B	*>Letter>B	*>Letter>B	*>Letter>B	*>Letter>B	*>Letter>B	*>Letter>B	*>Letter>B	*>Letter>B
*>Label>Verse	*>Label>Verse	*>Label>Verse	*>Label>Verse	*>Label>Verse	*>Label>Verse	*>Label>Verse	*>Label>Verse	*>Label>Verse	*>Label>Verse
4C	boom	1r	.	1CM	newline	voice	.	12.655	C:maj
4C	boom	.	.	.	.	.	.	.	.
8E	in-	.	.	.	.	.	.	.	.
8G	-to	.	.	.	.	.	.	.	.
8A	my	.	.	.	.	.	.	.	.
[8c	heart	.	.	.	.	.	A	.	.
=11	=11	=11	=11	=11	=11	=11	=11	=11	=11
4c]	_	1r	.	1CM	.	voice	.	14.124	C:maj
4r	.	.	.	.	.	.	.	.	.
8r	.	.	.	.	.	.	.	.	.
8c	You	.	.	.	.	.	.	.	.
8e	send	.	.	.	.	.	.	.	.
8g	my	.	.	.	.	.	.	.	.
=12	=12	=12	=12	=12	=12	=12	=12	=12	=12
4f	soul	1r	.	1Dm	.	voice	.	15.592	D:min
4e	sky	.	.	.	.	.	.	.	.
4c	high	.	.	.	.	.	.	.	.
8c	when	.	.	.	.	.	.	.	.
8A	your	.	.	.	.	.	.	.	.
=13	=13	=13	=13	=13	=13	=13	=13	=13	=13
8c	lo-	1r	.	1CM	.	voice	.	17.061	C:maj
4c	-vin'	.	.	.	.	.	.	.	.
8A	starts	.	.	.	.	.	A	.	.
4G	_	.	.	.	.	.	.	.	.
4r	.	.	.	.	.	.	.	.	.
=14	=14	=14	=14	=14	=14	=14	=14	=14	=14
8C	Jit-	1r	.	1CM	newline	voice	.	18.53	C:maj
8C	-ter-	.	.	.	.	.	.	.	.
4C	-bug	.	.	.	.	.	.	.	.
8E	in-	.	.	.	.	.	.	.	.
8G	-to	.	.	.	.	.	.	.	.
8A	my	.	.	.	.	.	.	.	.
8c	brain	.	.	.	.	.	B	.	.
=15	=15	=15	=15	=15	=15	=15	=15	=15	=15
8d	_	1r	.	1CM	.	voice	.	20.016	C:maj
4.c	_	.	.	.	.	.	.	.	.
4r	.	.	.	.	.	.	.	.	.
8e	Goes	.	.	.	.	.	.	.	.
8g	a	.	.	.	.	.	.	.	.
=16	=16	=16	=16	=16	=16	=16	=16	=16	=16
4f	bang	1r	.	1Dm	.	voice	B	21.502	D:min
4e	bang	.	.	.	.	.	B	.	.
4c	bang	.	.	.	.	.	B	.	.
8c	till	.	.	.	.	.	.	.	.
8A	my	.	.	.	.	.	.	.	.
=17	=17	=17	=17	=17	=17	=17	=17	=17	=17
8c	feet	1r	.	1CM	.	voice	.	22.988	C:maj
8A	do	.	.	.	.	.	.	.	.
8c	the	.	.	.	.	.	.	.	.
8A	same	.	.	.	.	.	B	.	.
4G	_	.	.	.	.	.	.	.	.
8r	.	.	.	.	.	.	.	.	.
8G	But	.	.	.	.	.	.	.	.
=18	=18	=18	=18	=18	=18	=18	=18	=18	=18
*>Letter>C	*>Letter>C	*>Letter>C	*>Letter>C	*>Letter>C	*>Letter>C	*>Letter>C	*>Letter>C	*>Letter>C	*>Letter>C
*>Label>Prechorus	*>Label>Prechorus	*>Label>Prechorus	*>Label>Prechorus	*>Label>Prechorus	*>Label>Prechorus	*>Label>Prechorus	*>Label>Prechorus	*>Label>Prechorus	*>Label>Prechorus
8d	some-	1r	.	1Dmm	newline	voice	.	24.474	D:min7
4d	-things	.	.	.	.	.	.	.	.
4d	bug-	.	.	.	.	.	.	.	.
8c	-gin'	.	.	.	.	.	.	.	.
8A	you	.	.	.	.	.	.	.	.
8r	.	.	.	.	.	.	.	.	.
=19	=19	=19	=19	=19	=19	=19	=19	=19	=19
8e	Some-	1r	.	1Emm	.	voice	.	25.948	E:min7
4e	-thing	.	.	.	.	.	.	.	.
4d	ain't	.	.	.	.	.	.	.	.
4e	right	.	.	.	.	.	C	.	.
8c	My	.	.	.	.	.	.	.	.
=20	=20	=20	=20	=20	=20	=20	=20	=20	=20
8f	best	1r	.	1FM	.	voice	.	27.423	F:maj
4f	friend	.	.	.	.	.	.	.	.
4e	told	.	.	.	.	.	.	.	.
8f	me	.	.	.	.	.	.	.	.
8f	what	.	.	.	.	.	.	.	.
[8e	you	.	.	.	.	.	.	.	.
=21	=21	=21	=21	=21	=21	=21	=21	=21	=21
8e]	_	1r	.	1Emm	.	voice	.	28.897	E:min7
4e	did	.	.	.	.	.	.	.	.
4g	last	.	.	.	.	.	.	.	.
4e	night	.	.	.	.	.	C	.	.
8r	.	.	.	.	.	.	.	.	.
=22	=22	=22	=22	=22	=22	=22	=22	=22	=22
4d	Left	1r	.	1Dmm	newline	voice	.	30.372	D:min7
8d	me	.	.	.	.	.	.	.	.
4c	sleep-	.	.	.	.	.	(D	.	.
8d	-in'	.	.	.	.	.	d)	.	.
4r	.	.	.	.	.	.	.	.	.
=23	=23	=23	=23	=23	=23	=23	=23	=23	=23
8e	in	1r	.	1Emm	.	voice	.	31.848	E:min7
4e	my	.	.	.	.	.	.	.	.
8d	bed	.	.	.	.	.	E	.	.
4c	_	.	.	.	.	.	.	.	.
4r	.	.	.	.	.	.	.	.	.
=24	=24	=24	=24	=24	=24	=24	=24	=24	=24
8f	I	1r	.	1FM	.	voice	.	33.325	F:maj
4f	was	.	.	.	.	.	.	.	.
4e	dream-	.	.	.	.	.	(D	.	.
8f	-ing	.	.	.	.	.	d)	.	.
8f	but	.	.	.	.	.	.	.	.
8f	I	.	.	.	.	.	.	.	.
=25	=25	=25	=25	=25	=25	=25	=25	=25	=25
8a	shoul-	1r	.	1GM	.	voice	.	34.802	G:maj
8g	-d've	.	.	.	.	.	.	.	.
8g	been	.	.	.	.	.	.	.	.
8e	with	.	.	.	.	.	.	.	.
8g	you	.	.	.	.	.	.	.	.
4e	in-	.	.	.	.	.	.	.	.
[8a	-stead	.	.	.	.	.	E	.	.
=26	=26	=26	=26	=26	=26	=26	=26	=26	=26
4a]	_	2r	.	1GM	.	voice	.	36.279	G:maj
4r	.	.	.	.	.	.	.	.	.
8e	Wake	8e	Wake	.	.	.	.	.	.
4g	me	4g	me	.	.	.	.	.	.
8a	up	8a	up	.	.	.	.	.	.
=27	=27	=27	=27	=27	=27	=27	=27	=27	=27
*>Letter>B	*>Letter>B	*>Letter>B	*>Letter>B	*>Letter>B	*>Letter>B	*>Letter>B	*>Letter>B	*>Letter>B	*>Letter>B
*>Label>Chorus	*>Label>Chorus	*>Label>Chorus	*>Label>Chorus	*>Label>Chorus	*>Label>Chorus	*>Label>Chorus	*>Label>Chorus	*>Label>Chorus	*>Label>Chorus
4r	.	4r	.	1CM	newline	voice	.	37.756	C:maj
8r	.	8r	.	.	.	.	.	.	.
8e	be-	8e	be-	.	.	.	.	.	.
4g	-fore	4g	-fore	.	.	.	.	.	.
8a	you	8a	you	.	.	.	.	.	.
[8e	go	[8e	go	.	.	.	F	.	.
=28	=28	=28	=28	=28	=28	=28	=28	=28	=28
8e]	_	8e]	_	1CM	.	voice	.	39.23	C:maj
8c	go	8c	go	.	.	.	F	.	.
8r	.	8r	.	.	.	.	.	.	.
8c	Don't	8c	Don't	.	.	.	.	.	.
8d	leave	8d	leave	.	.	.	.	.	.
8e	me	8e	me	.	.	.	.	.	.
8r	.	8r	.	.	.	.	.	.	.
[8f	hang-	[8f	hang-	.	.	.	.	.	.
=29	=29	=29	=29	=29	=29	=29	=29	=29	=29
8f]	_	8f]	_	1Dm	.	voice	.	40.705	D:min
8e	-in'	8e	-in'	.	.	.	.	.	.
4d	on	4d	on	.	.	.	.	.	.
4e	like	4e	like	.	.	.	.	.	.
8g	a	8g	a	.	.	.	.	.	.
[8e	yo-	[8e	yo-	.	.	.	F	.	.
=30	=30	=30	=30	=30	=30	=30	=30	=30	=30
8e]	_	8e]	_	1CM	.	voice	.	42.179	C:maj
8c	-yo	8c	-yo	.	.	.	F	.	.
4r	.	4r	.	.	.	.	.	.	.
8e	Wake	8e	Wake	.	.	.	.	.	.
4g	me	4g	me	.	.	.	.	.	.
8a	up	8a	up	.	.	.	.	.	.
=31	=31	=31	=31	=31	=31	=31	=31	=31	=31
4r	.	4r	.	1CM	newline	voice	.	43.654	C:maj
8r	.	8r	.	.	.	.	.	.	.
8e	be-	8e	be-	.	.	.	.	.	.
4g	-fore	4g	-fore	.	.	.	.	.	.
8a	you	8a	you	.	.	.	.	.	.
[8e	go	[8e	go	.	.	.	F	.	.
=32	=32	=32	=32	=32	=32	=32	=32	=32	=32
8e]	_	8e]	_	1CM	.	voice	.	45.128	C:maj
8c	go	8c	go	.	.	.	F	.	.
8r	.	8r	.	.	.	.	.	.	.
8c	I	8c	I	.	.	.	.	.	.
8c	don't	8c	don't	.	.	.	.	.	.
8d	wan-	8d	wan-	.	.	.	.	.	.
8c	-na	8c	-na	.	.	.	.	.	.
[8f	miss	[8f	miss	.	.	.	.	.	.
=33	=33	=33	=33	=33	=33	=33	=33	=33	=33
8f]	_	8f]	_	1Dm	.	voice	.	46.602	D:min
8c	it	8c	it	.	.	.	.	.	.
8c	when	8c	when	.	.	.	.	.	.
8A	you	8A	you	.	.	.	.	.	.
8c	hit	8c	hit	.	.	.	.	.	.
4c	that	4c	that	.	.	.	.	.	.
8A	high	8A	high	.	.	.	C	.	.
=34	=34	=34	=34	=34	=34	=34	=34	=34	=34
4G	_	4G	_	1CM	.	voice	.	48.077	C:maj
4r	.	4r	.	.	.	.	.	.	.
8e	Wake	8e	Wake	.	.	.	.	.	.
4g	me	4g	me	.	.	.	.	.	.
8a	up	8a	up	.	.	.	.	.	.
=35	=35	=35	=35	=35	=35	=35	=35	=35	=35
4r	.	4r	.	1CM	newline	voice	.	49.551	C:maj
8r	.	8r	.	.	.	.	.	.	.
8e	be-	8e	be-	.	.	.	.	.	.
4g	-fore	4g	-fore	.	.	.	.	.	.
8a	you	8a	you	.	.	.	.	.	.
[8e	go	[8e	go	.	.	.	F	.	.
=36	=36	=36	=36	=36	=36	=36	=36	=36	=36
8e]	_	8e]	_	1CM	.	voice	.	51.026	C:maj
8c	go	8c	go	.	.	.	F	.	.
8r	.	8r	.	.	.	.	.	.	.
8c	'cause	8c	'cause	.	.	.	.	.	.
8d	I'm	8d	I'm	.	.	.	.	.	.
8e	not	8e	not	.	.	.	.	.	.
8r	.	8r	.	.	.	.	.	.	.
[8f	plan-	[8f	plan-	.	.	.	.	.	.
=37	=37	=37	=37	=37	=37	=37	=37	=37	=37
8f]	_	8f]	_	1Dm	.	voice	.	52.5	D:min
8e	-nin'	8e	-nin'	.	.	.	.	.	.
4d	on	4d	on	.	.	.	.	.	.
4e	go-	4e	go-	.	.	.	F	.	.
8g	-in'	8g	-in'	.	.	.	.	.	.
[8e	so-	[8e	so-	.	.	.	(F	.	.
=38	=38	=38	=38	=38	=38	=38	=38	=38	=38
8e]	_	8e]	_	1CM	.	voice	.	53.975	C:maj
8c	-lo	8c	-lo	.	.	.	f)	.	.
4r	.	4r	.	.	.	.	.	.	.
8e	Wake	8e	Wake	.	.	.	.	.	.
4g	me	4g	me	.	.	.	.	.	.
8a	up	8a	up	.	.	.	.	.	.
=39	=39	=39	=39	=39	=39	=39	=39	=39	=39
4r	.	4r	.	1CM	newline	voice	.	55.449	C:maj
8e	be-	8e	be-	.	.	.	.	.	.
4.g	-fore	4.g	-fore	.	.	.	.	.	.
8a	you	8a	you	.	.	.	.	.	.
[8e	go	[8e	go	.	.	.	F	.	.
=40	=40	=40	=40	=40	=40	=40	=40	=40	=40
8e]	_	8e]	_	1CM	.	voice	.	56.552	C:maj
8c	go	8c	go	.	.	.	F	.	.
8A	_	8A	_	.	.	.	.	.	.
4.c	ah	4.c	ah	.	.	.	.	.	.
4r	.	4r	.	.	.	.	.	.	.
=41	=41	=41	=41	=41	=41	=41	=41	=41	=41
4e	Take	4e	Take	2Em	.	voice	.	57.655	E:min
8c	me	8c	me	.	.	.	.	.	.
4d	danc-	4d	danc-	.	.	.	.	.	.
.	.	.	.	2Dm	.	voice	.	58.207	D:min
8d	-in'	8d	-in'	.	.	.	.	.	.
8d	to-	8d	to-	.	.	.	.	.	.
[8d	-night	[8d	-night	.	.	.	C	.	.
=42	=42	=42	=42	=42	=42	=42	=42	=42	=42
*>Letter>D	*>Letter>D	*>Letter>D	*>Letter>D	*>Letter>D	*>Letter>D	*>Letter>D	*>Letter>D	*>Letter>D	*>Letter>D
*>Label>Interlude	*>Label>Interlude	*>Label>Interlude	*>Label>Interlude	*>Label>Interlude	*>Label>Interlude	*>Label>Interlude	*>Label>Interlude	*>Label>Interlude	*>Label>Interlude
8d]	_	8d]	_	1CMm	newline	voice	.	59.861	C:7
[8c	_	[8c	_	.	.	.	.	.	.
2.c_	_	2.c_	_	.	.	.	.	.	.
=43	=43	=43	=43	=43	=43	=43	=43	=43	=43
1c_	_	1c_	_	1FM	.	voice	.	61.336	F:maj/5
=44	=44	=44	=44	=44	=44	=44	=44	=44	=44
2c]	_	2c]	_	1CMm	.	voice	.	62.81	C:7
2r	.	2r	.	.	.	.	.	.	.
=45	=45	=45	=45	=45	=45	=45	=45	=45	=45
*clefG2	*	*	*	*	*	*	*	*	*
8r	.	1r	.	1CMm	.	voice	.	64.284	C:7
8B-	I	.	.	.	.	.	.	.	.
8c	wan-	.	.	.	.	.	.	.	.
8B-	-na	.	.	.	.	.	.	.	.
8c	hit	.	.	.	.	.	.	.	.
4c	that	.	.	.	.	.	.	.	.
[8cc	high	.	.	.	.	.	C	.	.
=46	=46	=46	=46	=46	=46	=46	=46	=46	=46
1cc_	_	1r	.	1CMm	newline	voice	.	65.759	C:7
=47	=47	=47	=47	=47	=47	=47	=47	=47	=47
1cc_	_	1r	.	1FM	.	voice	.	67.239	F:maj/5
=48	=48	=48	=48	=48	=48	=48	=48	=48	=48
4.cc]	_	1r	.	1CMm	.	voice	.	68.719	C:7
8r	.	.	.	.	.	.	.	.	.
4a	Yeah	.	.	.	.	.	.	.	.
8g	_	.	.	.	.	.	.	.	.
8e-	yeah	.	.	.	.	.	.	.	.
=49	=49	=49	=49	=49	=49	=49	=49	=49	=49
2c	_	1r	.	1CMm	.	voice	.	70.2	C:7
*clefF4	*	*	*	*	*	*	*	*	*
8r	.	.	.	.	.	.	.	.	.
8G	You	.	.	.	.	.	.	.	.
8A	take	.	.	.	.	.	.	.	.
8G	the	.	.	.	.	.	.	.	.
=50	=50	=50	=50	=50	=50	=50	=50	=50	=50
*>Letter>B	*>Letter>B	*>Letter>B	*>Letter>B	*>Letter>B	*>Letter>B	*>Letter>B	*>Letter>B	*>Letter>B	*>Letter>B
*>Label>Verse	*>Label>Verse	*>Label>Verse	*>Label>Verse	*>Label>Verse	*>Label>Verse	*>Label>Verse	*>Label>Verse	*>Label>Verse	*>Label>Verse
4C	grey	1r	.	1CM	newline	voice	.	71.68	C:maj
4C	skies	.	.	.	.	.	.	.	.
8E	out	.	.	.	.	.	.	.	.
8G	of	.	.	.	.	.	.	.	.
8A	my	.	.	.	.	.	.	.	.
[8c	way	.	.	.	.	.	B	.	.
=51	=51	=51	=51	=51	=51	=51	=51	=51	=51
4c]	_	1r	.	1CM	.	voice	.	73.149	C:maj
4r	.	.	.	.	.	.	.	.	.
8r	.	.	.	.	.	.	.	.	.
8c	You	.	.	.	.	.	.	.	.
8e	make	.	.	.	.	.	.	.	.
8g	the	.	.	.	.	.	.	.	.
=52	=52	=52	=52	=52	=52	=52	=52	=52	=52
4f	sun	1r	.	1Dm	.	voice	.	74.617	D:min
4e	shine	.	.	.	.	.	.	.	.
8c	brigh-	.	.	.	.	.	.	.	.
8c	-ter	.	.	.	.	.	.	.	.
4c	than	.	.	.	.	.	.	.	.
=53	=53	=53	=53	=53	=53	=53	=53	=53	=53
8c	Dor-	1r	.	1CM	.	voice	.	76.086	C:maj
4c	-is	.	.	.	.	.	.	.	.
8A	day	.	.	.	.	.	B	.	.
4G	_	.	.	.	.	.	.	.	.
8A	Turned	.	.	.	.	.	.	.	.
8G	a	.	.	.	.	.	.	.	.
=54	=54	=54	=54	=54	=54	=54	=54	=54	=54
4C	bright	1r	.	1CM	newline	voice	.	77.555	C:maj
4C	spark	.	.	.	.	.	.	.	.
8E	in-	.	.	.	.	.	.	.	.
8G	-to	.	.	.	.	.	.	.	.
8A	a	.	.	.	.	.	.	.	.
8c	flame	.	.	.	.	.	B	.	.
=55	=55	=55	=55	=55	=55	=55	=55	=55	=55
8d	_	1r	.	1CM	.	voice	.	79.041	C:maj
[4.c	_	.	.	.	.	.	.	.	.
4c]	_	.	.	.	.	.	.	.	.
8e	My	.	.	.	.	.	.	.	.
8g	_	.	.	.	.	.	.	.	.
=56	=56	=56	=56	=56	=56	=56	=56	=56	=56
4f	beats	1r	.	1Dm	.	voice	.	80.527	D:min
4e	per	.	.	.	.	.	.	.	.
8c	mi-	.	.	.	.	.	.	.	.
8c	-nute	.	.	.	.	.	.	.	.
8c	ne-	.	.	.	.	.	.	.	.
8A	-ver	.	.	.	.	.	.	.	.
=57	=57	=57	=57	=57	=57	=57	=57	=57	=57
8c	been	1r	.	1CM	.	voice	.	82.013	C:maj
4c	the	.	.	.	.	.	.	.	.
8A	same	.	.	.	.	.	B	.	.
4G	_	.	.	.	.	.	.	.	.
8r	.	.	.	.	.	.	.	.	.
8G	'Cause	.	.	.	.	.	.	.	.
=58	=58	=58	=58	=58	=58	=58	=58	=58	=58
*>Letter>C	*>Letter>C	*>Letter>C	*>Letter>C	*>Letter>C	*>Letter>C	*>Letter>C	*>Letter>C	*>Letter>C	*>Letter>C
*>Label>Prechorus	*>Label>Prechorus	*>Label>Prechorus	*>Label>Prechorus	*>Label>Prechorus	*>Label>Prechorus	*>Label>Prechorus	*>Label>Prechorus	*>Label>Prechorus	*>Label>Prechorus
8d	you're	1r	.	1Dmm	newline	voice	.	83.499	D:min7
4d	me	.	.	.	.	.	.	.	.
4c	la-	.	.	.	.	.	.	.	.
8d	-dy	.	.	.	.	.	.	.	.
8r	.	.	.	.	.	.	.	.	.
[8e	I'm	.	.	.	.	.	.	.	.
=59	=59	=59	=59	=59	=59	=59	=59	=59	=59
8e]	_	1r	.	1Emm	.	voice	.	84.973	E:min7
4e	your	.	.	.	.	.	.	.	.
4.e	fool	.	.	.	.	.	G	.	.
8r	.	.	.	.	.	.	.	.	.
8c	It	.	.	.	.	.	.	.	.
=60	=60	=60	=60	=60	=60	=60	=60	=60	=60
4f	makes	1r	.	1FM	.	voice	.	86.448	F:maj
8f	me	.	.	.	.	.	.	.	.
4e	cra-	.	.	.	.	.	.	.	.
8f	-zy	.	.	.	.	.	.	.	.
8f	when	.	.	.	.	.	.	.	.
[8e	you	.	.	.	.	.	.	.	.
=61	=61	=61	=61	=61	=61	=61	=61	=61	=61
8e]	_	1r	.	1Emm	.	voice	.	87.922	E:min7
4e	act	.	.	.	.	.	.	.	.
4g	so	.	.	.	.	.	.	.	.
4e	cruel	.	.	.	.	.	G	.	.
8r	.	.	.	.	.	.	.	.	.
=62	=62	=62	=62	=62	=62	=62	=62	=62	=62
8d	Come	1r	.	1Dmm	newline	voice	.	89.397	D:min7
4d	on	.	.	.	.	.	.	.	.
4c	ba-	.	.	.	.	.	.	.	.
8d	-by	.	.	.	.	.	.	.	.
8r	.	.	.	.	.	.	.	.	.
[8e	let's	.	.	.	.	.	.	.	.
=63	=63	=63	=63	=63	=63	=63	=63	=63	=63
8e]	_	1r	.	1Emm	.	voice	.	90.869	E:min7
4e	not	.	.	.	.	.	.	.	.
8d	fight	.	.	.	.	.	C	.	.
4c	_	.	.	.	.	.	.	.	.
4r	.	.	.	.	.	.	.	.	.
=64	=64	=64	=64	=64	=64	=64	=64	=64	=64
8f	We'll	1r	.	1FM	.	voice	.	92.341	F:maj
4f	go	.	.	.	.	.	.	.	.
4e	danc-	.	.	.	.	.	.	.	.
4.f	-in'	.	.	.	.	.	.	.	.
=65	=65	=65	=65	=65	=65	=65	=65	=65	=65
8a	ev-	1r	.	1GM	.	voice	.	93.813	G:maj
8g	-ery-	.	.	.	.	.	.	.	.
8g	-thing	.	.	.	.	.	.	.	.
8e	will	.	.	.	.	.	.	.	.
8g	be	.	.	.	.	.	.	.	.
4e	al-	.	.	.	.	.	.	.	.
[8a	-right	.	.	.	.	.	C	.	.
=66	=66	=66	=66	=66	=66	=66	=66	=66	=66
4a]	_	2r	.	1GM	.	voice	.	95.285	G:maj
4r	.	.	.	.	.	.	.	.	.
8e	Wake	8e	Wake	.	.	.	.	.	.
4g	me	4g	me	.	.	.	.	.	.
8a	up	8a	up	.	.	.	.	.	.
=67	=67	=67	=67	=67	=67	=67	=67	=67	=67
*>Letter>B	*>Letter>B	*>Letter>B	*>Letter>B	*>Letter>B	*>Letter>B	*>Letter>B	*>Letter>B	*>Letter>B	*>Letter>B
*>Label>Chorus	*>Label>Chorus	*>Label>Chorus	*>Label>Chorus	*>Label>Chorus	*>Label>Chorus	*>Label>Chorus	*>Label>Chorus	*>Label>Chorus	*>Label>Chorus
4r	.	4r	.	1CM	newline	voice	.	96.758	C:maj
8r	.	8r	.	.	.	.	.	.	.
8e	be-	8e	be-	.	.	.	.	.	.
4g	-fore	4g	-fore	.	.	.	.	.	.
8a	you	8a	you	.	.	.	.	.	.
[8e	go	[8e	go	.	.	.	F	.	.
=68	=68	=68	=68	=68	=68	=68	=68	=68	=68
8e]	_	8e]	_	1CM	.	voice	.	98.238	C:maj
8c	go	8c	go	.	.	.	F	.	.
8r	.	8r	.	.	.	.	.	.	.
8c	Don't	8c	Don't	.	.	.	.	.	.
8d	leave	8d	leave	.	.	.	.	.	.
8e	me	8e	me	.	.	.	.	.	.
8r	.	8r	.	.	.	.	.	.	.
[8f	hang-	[8f	hang-	.	.	.	.	.	.
=69	=69	=69	=69	=69	=69	=69	=69	=69	=69
8f]	_	8f]	_	1Dm	.	voice	.	99.718	D:min
8e	-in'	8e	-in'	.	.	.	.	.	.
4d	on	4d	on	.	.	.	.	.	.
4e	like	4e	like	.	.	.	.	.	.
8g	a	8g	a	.	.	.	.	.	.
[8e	yo-	[8e	yo-	.	.	.	F	.	.
=70	=70	=70	=70	=70	=70	=70	=70	=70	=70
8e]	_	8e]	_	1CM	.	voice	.	101.198	C:maj
8c	-yo	8c	-yo	.	.	.	F	.	.
4r	.	4r	.	.	.	.	.	.	.
8e	Wake	8e	Wake	.	.	.	.	.	.
4g	me	4g	me	.	.	.	.	.	.
8a	up	8a	up	.	.	.	.	.	.
=71	=71	=71	=71	=71	=71	=71	=71	=71	=71
4r	.	4r	.	1CM	newline	voice	.	102.679	C:maj
8r	.	8r	.	.	.	.	.	.	.
8e	be-	8e	be-	.	.	.	.	.	.
4g	-fore	4g	-fore	.	.	.	.	.	.
8a	you	8a	you	.	.	.	.	.	.
[8e	go	[8e	go	.	.	.	F	.	.
=72	=72	=72	=72	=72	=72	=72	=72	=72	=72
8e]	_	8e]	_	1CM	.	voice	.	104.147	C:maj
8c	go	8c	go	.	.	.	F	.	.
8r	.	8r	.	.	.	.	.	.	.
8c	I	8c	I	.	.	.	.	.	.
8c	don't	8c	don't	.	.	.	.	.	.
8d	wan-	8d	wan-	.	.	.	.	.	.
8c	-na	8c	-na	.	.	.	.	.	.
[8f	miss	[8f	miss	.	.	.	.	.	.
=73	=73	=73	=73	=73	=73	=73	=73	=73	=73
8f]	_	8f]	_	1Dm	.	voice	.	105.616	D:min
8c	it	8c	it	.	.	.	.	.	.
8c	when	8c	when	.	.	.	.	.	.
8A	you	8A	you	.	.	.	.	.	.
8c	hit	8c	hit	.	.	.	.	.	.
4c	that	4c	that	.	.	.	.	.	.
8A	high	8A	high	.	.	.	C	.	.
=74	=74	=74	=74	=74	=74	=74	=74	=74	=74
4G	_	4G	_	1CM	.	voice	.	107.085	C:maj
4r	.	4r	.	.	.	.	.	.	.
8cc	Wake	8cc	Wake	.	.	.	.	.	.
8g	me	8g	me	.	.	.	.	.	.
8a	_	8a	_	.	.	.	.	.	.
8g	up	8g	up	.	.	.	.	.	.
=75	=75	=75	=75	=75	=75	=75	=75	=75	=75
4r	.	4r	.	1CM	newline	voice	.	108.553	C:maj
8r	.	8r	.	.	.	.	.	.	.
8e	be-	8e	be-	.	.	.	.	.	.
4g	-fore	4g	-fore	.	.	.	.	.	.
8a	you	8a	you	.	.	.	.	.	.
[8e	go	[8e	go	.	.	.	F	.	.
=76	=76	=76	=76	=76	=76	=76	=76	=76	=76
8e]	_	8e]	_	1CM	.	voice	.	110.039	C:maj
8c	go	8c	go	.	.	.	F	.	.
8r	.	8r	.	.	.	.	.	.	.
8c	'cause	8c	'cause	.	.	.	.	.	.
8d	I'm	8d	I'm	.	.	.	.	.	.
8e	not	8e	not	.	.	.	.	.	.
8r	.	8r	.	.	.	.	.	.	.
[8f	plan-	[8f	plan-	.	.	.	.	.	.
=77	=77	=77	=77	=77	=77	=77	=77	=77	=77
8f]	_	8f]	_	1Dm	.	voice	.	111.525	D:min
8e	-nin'	8e	-nin'	.	.	.	.	.	.
4d	on	4d	on	.	.	.	.	.	.
4e	go-	4e	go-	.	.	.	F	.	.
8g	-in'	8g	-in'	.	.	.	.	.	.
[8e	so-	[8e	so-	.	.	.	(F	.	.
=78	=78	=78	=78	=78	=78	=78	=78	=78	=78
8e]	_	8e]	_	1CM	.	voice	.	113.012	C:maj
8c	-lo	8c	-lo	.	.	.	f)	.	.
4r	.	4r	.	.	.	.	.	.	.
8e	Wake	8e	Wake	.	.	.	.	.	.
4g	me	4g	me	.	.	.	.	.	.
8a	up	8a	up	.	.	.	.	.	.
=79	=79	=79	=79	=79	=79	=79	=79	=79	=79
4r	.	4r	.	1CM	newline	voice	.	114.498	C:maj
8e	be-	8e	be-	.	.	.	.	.	.
4.g	-fore	4.g	-fore	.	.	.	.	.	.
8a	you	8a	you	.	.	.	.	.	.
[8e	go	[8e	go	.	.	.	F	.	.
=80	=80	=80	=80	=80	=80	=80	=80	=80	=80
8e]	_	8e]	_	1CM	.	voice	.	115.96	C:maj
8c	go	8c	go	.	.	.	F	.	.
8A	_	8A	_	.	.	.	.	.	.
4.c	ah	4.c	ah	.	.	.	.	.	.
4r	.	4r	.	.	.	.	.	.	.
=81	=81	=81	=81	=81	=81	=81	=81	=81	=81
4e	Take	4e	Take	2Em	.	voice	.	117.423	E:min
8c	me	8c	me	.	.	.	.	.	.
4d	danc-	4d	danc-	.	.	.	.	.	.
.	.	.	.	2Dm	.	voice	.	118.155	D:min
8d	-in'	8d	-in'	.	.	.	.	.	.
8d	to-	8d	to-	.	.	.	.	.	.
[8d	-night	[8d	-night	.	.	.	C	.	.
=82	=82	=82	=82	=82	=82	=82	=82	=82	=82
*>Letter>D	*>Letter>D	*>Letter>D	*>Letter>D	*>Letter>D	*>Letter>D	*>Letter>D	*>Letter>D	*>Letter>D	*>Letter>D
*>Label>Interlude	*>Label>Interlude	*>Label>Interlude	*>Label>Interlude	*>Label>Interlude	*>Label>Interlude	*>Label>Interlude	*>Label>Interlude	*>Label>Interlude	*>Label>Interlude
8d]	_	8d]	_	1CMm	newline	voice	.	118.886	C:7
[8c	_	[8c	_	.	.	.	.	.	.
2.c_	_	2.c_	_	.	.	.	.	.	.
=83	=83	=83	=83	=83	=83	=83	=83	=83	=83
1c_	_	1c_	_	1FM	.	voice	.	120.361	F:maj/5
=84	=84	=84	=84	=84	=84	=84	=84	=84	=84
2.c]	_	2.c]	_	1CMm	.	voice	.	121.835	C:7
4r	.	4r	.	.	.	.	.	.	.
=85	=85	=85	=85	=85	=85	=85	=85	=85	=85
*clefG2	*	*	*	*	*	*	*	*	*
8r	.	1r	.	1CMm	.	voice	.	123.31	C:7
8B-	I	.	.	.	.	.	.	.	.
8c	wan-	.	.	.	.	.	.	.	.
8B-	-na	.	.	.	.	.	.	.	.
8c	hit	.	.	.	.	.	.	.	.
4c	that	.	.	.	.	.	.	.	.
[8cc	high	.	.	.	.	.	C	.	.
=86	=86	=86	=86	=86	=86	=86	=86	=86	=86
1cc_	_	1r	.	1CMm	newline	voice	.	124.784	C:7
=87	=87	=87	=87	=87	=87	=87	=87	=87	=87
1cc_	_	1r	.	1FM	.	voice	.	126.27	F:maj/5
=88	=88	=88	=88	=88	=88	=88	=88	=88	=88
4.cc]	_	1r	.	1CMm	.	voice	.	127.756	C:7
8r	.	.	.	.	.	.	.	.	.
2ee	Yeah	.	.	.	.	.	.	.	.
=89	=89	=89	=89	=89	=89	=89	=89	=89	=89
4.ee	yeah	1r	.	1CMm	.	voice	.	129.242	C:7
16ee	yeah	.	.	.	.	.	.	.	.
16dd	_	.	.	.	.	.	.	.	.
4.cc	_	.	.	.	.	.	.	.	.
[8a	ba-	.	.	.	.	.	.	.	.
=90	=90	=90	=90	=90	=90	=90	=90	=90	=90
*>Letter>B	*>Letter>B	*>Letter>B	*>Letter>B	*>Letter>B	*>Letter>B	*>Letter>B	*>Letter>B	*>Letter>B	*>Letter>B
*>Label>Solo	*>Label>Solo	*>Label>Solo	*>Label>Solo	*>Label>Solo	*>Label>Solo	*>Label>Solo	*>Label>Solo	*>Label>Solo	*>Label>Solo
4a]	_	8C	Jit-	1CM	newline	horns	.	130.728	C:maj
.	.	8C	-ter-	.	.	.	.	.	.
4a	-by	4C	-bug	.	.	.	.	.	.
2r	.	2r	.	.	.	.	.	.	.
=91	=91	=91	=91	=91	=91	=91	=91	=91	=91
*clefF4	*	*	*	*	*	*	*	*	*
1r	.	1r	.	1CM	.	horns	.	132.209	C:maj
=92	=92	=92	=92	=92	=92	=92	=92	=92	=92
1r	.	1r	.	1Dm	.	horns	.	133.689	D:min
=93	=93	=93	=93	=93	=93	=93	=93	=93	=93
1r	.	1r	.	1CM	.	horns	.	135.169	C:maj
=94	=94	=94	=94	=94	=94	=94	=94	=94	=94
1r	.	8C	Jit-	1CM	newline	horns	.	136.649	C:maj
.	.	8C	-ter-	.	.	.	.	.	.
.	.	4C	-bug	.	.	.	H	.	.
.	.	2r	.	.	.	.	.	.	.
=95	=95	=95	=95	=95	=95	=95	=95	=95	=95
1r	.	1r	.	1CM	.	horns	.	138.118	C:maj
=96	=96	=96	=96	=96	=96	=96	=96	=96	=96
1r	.	1r	.	1Dm	.	horns	.	139.587	D:min
=97	=97	=97	=97	=97	=97	=97	=97	=97	=97
1r	.	1r	.	1CM	.	horns	.	141.055	C:maj
=98	=98	=98	=98	=98	=98	=98	=98	=98	=98
*>Letter>C	*>Letter>C	*>Letter>C	*>Letter>C	*>Letter>C	*>Letter>C	*>Letter>C	*>Letter>C	*>Letter>C	*>Letter>C
*>Label>Prechorus	*>Label>Prechorus	*>Label>Prechorus	*>Label>Prechorus	*>Label>Prechorus	*>Label>Prechorus	*>Label>Prechorus	*>Label>Prechorus	*>Label>Prechorus	*>Label>Prechorus
8d	Cu-	1r	.	1Dmm	newline	voice	H	142.524	D:min7
8c	-ddle	.	.	.	.	.	.	.	.
8d	up	.	.	.	.	.	h	.	.
8r	.	.	.	.	.	.	.	.	.
8c	ba-	.	.	.	.	.	.	.	.
8d	-by	.	.	.	.	.	.	.	.
4r	.	.	.	.	.	.	.	.	.
=99	=99	=99	=99	=99	=99	=99	=99	=99	=99
8e	Move	1r	.	1Emm	.	voice	.	144.004	E:min7
4e	in	.	.	.	.	.	.	.	.
8d	tight	.	.	.	.	.	C	.	.
4c	_	.	.	.	.	.	.	.	.
4r	.	.	.	.	.	.	.	.	.
=100	=100	=100	=100	=100	=100	=100	=100	=100	=100
8f	We'll	1r	.	1FM	.	voice	.	145.485	F:maj
4f	go	.	.	.	.	.	.	.	.
4e	danc-	.	.	.	.	.	.	.	.
8f	-in'	.	.	.	.	.	.	.	.
8e	to-	.	.	.	.	.	.	.	.
[8e	-mor-	.	.	.	.	.	.	.	.
=101	=101	=101	=101	=101	=101	=101	=101	=101	=101
8e]	_	1r	.	1Emm	.	voice	.	146.965	E:min7
8e	-row	.	.	.	.	.	.	.	.
8g	_	.	.	.	.	.	.	.	.
4.e	night	.	.	.	.	.	C	.	.
8r	.	.	.	.	.	.	.	.	.
8c	It's	.	.	.	.	.	.	.	.
=102	=102	=102	=102	=102	=102	=102	=102	=102	=102
8d	cold	1r	.	1Dmm	newline	voice	.	148.445	D:min7
4d	out	.	.	.	.	.	.	.	.
4c	there	.	.	.	.	.	.	.	.
8d	but	.	.	.	.	.	.	.	.
4c	it's	.	.	.	.	.	.	.	.
=103	=103	=103	=103	=103	=103	=103	=103	=103	=103
8e	warm	1r	.	1Emm	.	voice	.	149.914	E:min7
4e	in	.	.	.	.	.	.	.	.
8d	bed	.	.	.	.	.	E	.	.
4c	_	.	.	.	.	.	.	.	.
4r	.	.	.	.	.	.	.	.	.
=104	=104	=104	=104	=104	=104	=104	=104	=104	=104
8f	They	1r	.	1FM	.	voice	.	151.382	F:maj
4f	can	.	.	.	.	.	.	.	.
4.f	dance	.	.	.	.	.	.	.	.
4r	.	.	.	.	.	.	.	.	.
=105	=105	=105	=105	=105	=105	=105	=105	=105	=105
4a	We'll	1r	.	1GM	.	voice	.	152.851	G:maj
8g	stay	.	.	.	.	.	.	.	.
8e	_	.	.	.	.	.	.	.	.
8g	home	.	.	.	.	.	.	.	.
4e	in-	.	.	.	.	.	.	.	.
[8a	-stead	.	.	.	.	.	E	.	.
=106	=106	=106	=106	=106	=106	=106	=106	=106	=106
*>Letter>B	*>Letter>B	*>Letter>B	*>Letter>B	*>Letter>B	*>Letter>B	*>Letter>B	*>Letter>B	*>Letter>B	*>Letter>B
*>Label>Instrumental	*>Label>Instrumental	*>Label>Instrumental	*>Label>Instrumental	*>Label>Instrumental	*>Label>Instrumental	*>Label>Instrumental	*>Label>Instrumental	*>Label>Instrumental	*>Label>Instrumental
4.a]	_	1r	.	1CM	newline	voice	.	154.32	C:maj
4.g	_	.	.	.	.	.	.	.	.
[4a	_	.	.	.	.	.	.	.	.
=107	=107	=107	=107	=107	=107	=107	=107	=107	=107
4a]	_	1r	.	1CM	.	voice	.	155.8	C:maj
4r	.	.	.	.	.	.	.	.	.
2r	.	.	.	.	.	.	.	.	.
=108	=108	=108	=108	=108	=108	=108	=108	=108	=108
1r	.	1r	.	1Dm	.	voice	.	157.28	D:min
=109	=109	=109	=109	=109	=109	=109	=109	=109	=109
1r	.	1r	.	1CM	.	voice	.	158.761	C:maj
=110	=110	=110	=110	=110	=110	=110	=110	=110	=110
1r	.	8C	Jit-	1CM	newline	voice	.	160.241	C:maj
.	.	8C	-ter-	.	.	.	.	.	.
.	.	4C	-bug	.	.	.	.	.	.
.	.	2r	.	.	.	.	.	.	.
=111	=111	=111	=111	=111	=111	=111	=111	=111	=111
1r	.	1r	.	1CM	.	voice	.	161.715	C:maj
=112	=112	=112	=112	=112	=112	=112	=112	=112	=112
1r	.	1r	.	1Dm	.	voice	.	163.19	D:min
=113	=113	=113	=113	=113	=113	=113	=113	=113	=113
2r	.	2r	.	1CM	.	voice	.	164.664	C:maj
8e	Wake	8e	Wake	.	.	.	.	.	.
4g	me	4g	me	.	.	.	.	.	.
8a	up	8a	up	.	.	.	.	.	.
=114	=114	=114	=114	=114	=114	=114	=114	=114	=114
*>Letter>B	*>Letter>B	*>Letter>B	*>Letter>B	*>Letter>B	*>Letter>B	*>Letter>B	*>Letter>B	*>Letter>B	*>Letter>B
*>Label>Chorus	*>Label>Chorus	*>Label>Chorus	*>Label>Chorus	*>Label>Chorus	*>Label>Chorus	*>Label>Chorus	*>Label>Chorus	*>Label>Chorus	*>Label>Chorus
4r	.	4r	.	1CM	newline	voice	.	166.139	C:maj
8r	.	8r	.	.	.	.	.	.	.
8e	be-	8e	be-	.	.	.	.	.	.
4g	-fore	4g	-fore	.	.	.	.	.	.
8a	you	8a	you	.	.	.	.	.	.
[8e	go	[8e	go	.	.	.	F	.	.
=115	=115	=115	=115	=115	=115	=115	=115	=115	=115
8e]	_	8e]	_	1CM	.	voice	.	167.607	C:maj
8c	go	8c	go	.	.	.	F	.	.
8r	.	8r	.	.	.	.	.	.	.
8c	Don't	8c	Don't	.	.	.	.	.	.
8d	leave	8d	leave	.	.	.	.	.	.
8e	me	8e	me	.	.	.	.	.	.
8r	.	8r	.	.	.	.	.	.	.
[8f	hang-	[8f	hang-	.	.	.	.	.	.
=116	=116	=116	=116	=116	=116	=116	=116	=116	=116
8f]	_	8f]	_	1Dm	.	voice	.	169.076	D:min
8e	-in'	8e	-in'	.	.	.	.	.	.
4d	on	4d	on	.	.	.	.	.	.
4e	like	4e	like	.	.	.	.	.	.
8g	a	8g	a	.	.	.	.	.	.
[8e	yo-	[8e	yo-	.	.	.	F	.	.
=117	=117	=117	=117	=117	=117	=117	=117	=117	=117
8e]	_	8e]	_	1CM	.	voice	.	170.545	C:maj
8c	-yo	8c	-yo	.	.	.	F	.	.
4r	.	4r	.	.	.	.	.	.	.
8e	Wake	8e	Wake	.	.	.	.	.	.
4g	me	4g	me	.	.	.	.	.	.
8a	up	8a	up	.	.	.	.	.	.
=118	=118	=118	=118	=118	=118	=118	=118	=118	=118
4r	.	4r	.	1CM	newline	voice	.	172.013	C:maj
8r	.	8r	.	.	.	.	.	.	.
8e	be-	8e	be-	.	.	.	.	.	.
4g	-fore	4g	-fore	.	.	.	.	.	.
8a	you	8a	you	.	.	.	.	.	.
[8e	go	[8e	go	.	.	.	F	.	.
=119	=119	=119	=119	=119	=119	=119	=119	=119	=119
8e]	_	8e]	_	1CM	.	voice	.	173.488	C:maj
8c	go	8c	go	.	.	.	F	.	.
8r	.	8r	.	.	.	.	.	.	.
8c	I	8c	I	.	.	.	.	.	.
8c	don't	8c	don't	.	.	.	.	.	.
8d	wan-	8d	wan-	.	.	.	.	.	.
8c	-na	8c	-na	.	.	.	.	.	.
[8f	miss	[8f	miss	.	.	.	.	.	.
=120	=120	=120	=120	=120	=120	=120	=120	=120	=120
8f]	_	8f]	_	1Dm	.	voice	.	174.962	D:min
8c	it	8c	it	.	.	.	.	.	.
8c	when	8c	when	.	.	.	.	.	.
8A	you	8A	you	.	.	.	.	.	.
8c	hit	8c	hit	.	.	.	.	.	.
4c	that	4c	that	.	.	.	.	.	.
8A	high	8A	high	.	.	.	C	.	.
=121	=121	=121	=121	=121	=121	=121	=121	=121	=121
4G	_	4G	_	1CM	.	voice	.	176.437	C:maj
4r	.	4r	.	.	.	.	.	.	.
8cc	Wake	8cc	Wake	.	.	.	.	.	.
8g	me	8g	me	.	.	.	.	.	.
8a	_	8a	_	.	.	.	.	.	.
8g	up	8g	up	.	.	.	.	.	.
=122	=122	=122	=122	=122	=122	=122	=122	=122	=122
4r	.	4r	.	1CM	newline	voice	.	177.911	C:maj
8r	.	8r	.	.	.	.	.	.	.
8e	be-	8e	be-	.	.	.	.	.	.
4g	-fore	4g	-fore	.	.	.	.	.	.
8a	you	8a	you	.	.	.	.	.	.
[8e	go	[8e	go	.	.	.	F	.	.
=123	=123	=123	=123	=123	=123	=123	=123	=123	=123
8e]	_	8e]	_	1CM	.	voice	.	179.392	C:maj
8c	go	8c	go	.	.	.	F	.	.
8r	.	8r	.	.	.	.	.	.	.
8c	'cause	8c	'cause	.	.	.	.	.	.
8d	I'm	8d	I'm	.	.	.	.	.	.
4e	not	4e	not	.	.	.	.	.	.
[8f	plan-	[8f	plan-	.	.	.	.	.	.
=124	=124	=124	=124	=124	=124	=124	=124	=124	=124
8f]	_	8f]	_	1Dm	.	voice	.	180.872	D:min
8e	-nin'	8e	-nin'	.	.	.	.	.	.
4d	on	4d	on	.	.	.	.	.	.
4e	go-	4e	go-	.	.	.	F	.	.
8g	-in'	8g	-in'	.	.	.	.	.	.
[8e	so-	[8e	so-	.	.	.	(F	.	.
=125	=125	=125	=125	=125	=125	=125	=125	=125	=125
8e]	_	8e]	_	1CM	.	voice	.	182.352	C:maj
8c	-lo	8c	-lo	.	.	.	f)	.	.
4r	.	4r	.	.	.	.	.	.	.
8e	Wake	8e	Wake	.	.	.	.	.	.
4g	me	4g	me	.	.	.	.	.	.
[8a	up	8a	up	.	.	.	.	.	.
=126	=126	=126	=126	=126	=126	=126	=126	=126	=126
4a]	_	4r	.	1CM	newline	voice	.	183.832	C:maj
8e	be-	8r	.	.	.	.	.	.	.
4.g	-fore	8e	be-	.	.	.	.	.	.
.	.	4g	-fore	.	.	.	.	.	.
8a	you	8a	you	.	.	.	.	.	.
[8e	go	[8e	go	.	.	.	F	.	.
=127	=127	=127	=127	=127	=127	=127	=127	=127	=127
8e]	_	8e]	_	1CM	.	voice	.	185.313	C:maj
8c	go	8c	go	.	.	.	F	.	.
8A	_	8A	_	.	.	.	.	.	.
4.c	ah	4.c	ah	.	.	.	.	.	.
4r	.	4r	.	.	.	.	.	.	.
=128	=128	=128	=128	=128	=128	=128	=128	=128	=128
4e	Take	4e	Take	1Dm	.	voice	.	186.793	D:min
8c	me	8c	me	.	.	.	.	.	.
4d	danc-	4d	danc-	.	.	.	.	.	.
8d	-in'	8d	-in'	.	.	.	.	.	.
8d	to-	8d	to-	.	.	.	.	.	.
[8d	-night	[8d	-night	.	.	.	C	.	.
=129	=129	=129	=129	=129	=129	=129	=129	=129	=129
8d]	_	8d]	_	1CM	.	voice	.	188.273	C:maj
4c	_	4c	_	.	.	.	.	.	.
8r	.	8r	.	.	.	.	.	.	.
8e	Wake	8e	Wake	.	.	.	.	.	.
4g	me	4g	me	.	.	.	.	.	.
8a	up	8a	up	.	.	.	.	.	.
=130	=130	=130	=130	=130	=130	=130	=130	=130	=130
*>Letter>B	*>Letter>B	*>Letter>B	*>Letter>B	*>Letter>B	*>Letter>B	*>Letter>B	*>Letter>B	*>Letter>B	*>Letter>B
*>Label>Outro	*>Label>Outro	*>Label>Outro	*>Label>Outro	*>Label>Outro	*>Label>Outro	*>Label>Outro	*>Label>Outro	*>Label>Outro	*>Label>Outro
4r	.	4r	.	1CM	newline	voice	.	189.753	C:maj
8r	.	8r	.	.	.	.	.	.	.
8e	be-	8e	be-	.	.	.	.	.	.
4g	-fore	4g	-fore	.	.	.	.	.	.
8a	you	8a	you	.	.	.	.	.	.
[8e	go	[8e	go	.	.	.	F	.	.
=131	=131	=131	=131	=131	=131	=131	=131	=131	=131
8e]	_	8e]	_	1CM	.	voice	.	191.228	C:maj
8c	go	8c	go	.	.	.	F	.	.
8r	.	8r	.	.	.	.	.	.	.
4e	Don't	8c	Don't	.	.	.	.	.	.
.	.	8d	leave	.	.	.	.	.	.
4g	you	8e	me	.	.	.	.	.	.
.	.	8r	.	.	.	.	.	.	.
[8a	dare	[8f	hang-	.	.	.	.	.	.
=132	=132	=132	=132	=132	=132	=132	=132	=132	=132
4a]	_	8f]	_	1Dm	.	voice	.	192.702	D:min
.	.	8e	-in'	.	.	.	.	.	.
8r	.	4d	on	.	.	.	.	.	.
8e	to	.	.	.	.	.	.	.	.
4g	leave	4e	like	.	.	.	.	.	.
8a	me	8g	a	.	.	.	.	.	.
8r	.	[8e	yo-	.	.	.	F	.	.
=133	=133	=133	=133	=133	=133	=133	=133	=133	=133
4e	hang-	8e]	_	1CM	.	voice	.	194.177	C:maj
.	.	8c	-yo	.	.	.	F	.	.
4e	-in'	4r	.	.	.	.	.	.	.
4e	like	8e	Wake	.	.	.	.	.	.
.	.	4g	me	.	.	.	.	.	.
8g	a	.	.	.	.	.	.	.	.
[8e	yo-	8a	up	.	.	.	f	.	.
=134	=134	=134	=134	=134	=134	=134	=134	=134	=134
4e]	_	4r	.	1CM	newline	voice	.	195.651	C:maj
4e	-yo	8r	.	.	.	.	F	.	.
.	.	8e	be-	.	.	.	.	.	.
4e	_	4g	-fore	.	.	.	.	.	.
4e	_	8a	you	.	.	.	.	.	.
.	.	[8e	go	.	.	.	F	.	.
=135	=135	=135	=135	=135	=135	=135	=135	=135	=135
8d	_	8e]	_	1CM	.	voice	.	197.132	C:maj
[4.c	_	8c	go	.	.	.	F	.	.
.	.	8r	.	.	.	.	.	.	.
.	.	8c	I	.	.	.	.	.	.
4c]	_	8c	don't	.	.	.	.	.	.
.	.	8d	wan-	.	.	.	.	.	.
4r	.	8c	-na	.	.	.	.	.	.
.	.	[8f	miss	.	.	.	.	.	.
=136	=136	=136	=136	=136	=136	=136	=136	=136	=136
4g	Take	8f]	_	1Dm	.	voice	.	198.612	D:min
.	.	8c	it	.	.	.	.	.	.
8e	me	8c	when	.	.	.	.	.	.
4g	danc-	8A	you	.	.	.	.	.	.
.	.	8c	hit	.	.	.	.	.	.
4.a	-in'	4c	that	.	.	.	.	.	.
.	.	8r	.	.	.	.	.	.	.
=137	=137	=137	=137	=137	=137	=137	=137	=137	=137
8r	.	2r	.	1CM	.	voice	.	200.092	C:maj
8c	Uh	.	.	.	.	.	.	.	.
4g	boom	.	.	.	.	.	.	.	.
4e	boom	8e	Wake	.	.	.	.	.	.
.	.	4g	me	.	.	.	.	.	.
4g	boom	.	.	.	.	.	.	.	.
.	.	8a	up	.	.	.	.	.	.
=138	=138	=138	=138	=138	=138	=138	=138	=138	=138
2.e	boom	4r	.	1CM	newline	horns	.	201.572	C:maj
.	.	8r	.	.	.	.	.	.	.
.	.	8e	be-	.	.	.	.	.	.
.	.	4g	-fore	.	.	.	.	.	.
8r	.	8a	you	.	.	.	.	.	.
[8a	Oh	[8e	go	.	.	.	F	.	.
=139	=139	=139	=139	=139	=139	=139	=139	=139	=139
4a]	_	8e]	_	1CM	.	horns	.	203.047	C:maj
.	.	8c	go	.	.	.	F	.	.
2.r	.	8r	.	.	.	.	.	.	.
.	.	8c	'cause	.	.	.	.	.	.
.	.	8d	I'm	.	.	.	.	.	.
.	.	8e	not	.	.	.	.	.	.
.	.	8r	.	.	.	.	.	.	.
.	.	[8f	plan-	.	.	.	.	.	.
=140	=140	=140	=140	=140	=140	=140	=140	=140	=140
1r	.	8f]	_	1Dm	.	horns	.	204.521	D:min
.	.	8e	-nin'	.	.	.	.	.	.
.	.	4d	on	.	.	.	.	.	.
.	.	4e	go-	.	.	.	F	.	.
.	.	8g	-in'	.	.	.	.	.	.
.	.	[8e	so-	.	.	.	(F	.	.
=141	=141	=141	=141	=141	=141	=141	=141	=141	=141
8r	.	8e]	_	1CM	.	horns	.	205.996	C:maj
8c	Uh	8c	-lo	.	.	.	f)	.	.
4g	boom	4r	.	.	.	.	.	.	.
4e	boom	8e	Wake	.	.	.	.	.	.
.	.	4g	me	.	.	.	.	.	.
4g	boom	.	.	.	.	.	.	.	.
.	.	8a	up	.	.	.	.	.	.
=142	=142	=142	=142	=142	=142	=142	=142	=142	=142
2.e	boom	4r	.	1CM	newline	horns	.	207.47	C:maj
.	.	8r	.	.	.	.	.	.	.
.	.	8e	be-	.	.	.	.	.	.
.	.	4g	-fore	.	.	.	.	.	.
4r	.	8a	you	.	.	.	.	.	.
.	.	[8e	go	.	.	.	F	.	.
=143	=143	=143	=143	=143	=143	=143	=143	=143	=143
*clefG2	*	*	*	*	*	*	*	*	*
2ee	Yeah	8e]	_	1CM	.	horns	.	208.956	C:maj
.	.	8c	go	.	.	.	F	.	.
.	.	8A	_	.	.	.	.	.	.
.	.	4.c	_	.	.	.	.	.	.
4.ee	yeah	.	.	.	.	.	.	.	.
.	.	4r	.	.	.	.	.	.	.
8dd	yeah	.	.	.	.	.	.	.	.
=144	=144	=144	=144	=144	=144	=144	=144	=144	=144
2.cc	_	4e	Take	1Dm	.	horns	.	210.442	D:min
.	.	8c	me	.	.	.	.	.	.
.	.	4d	danc-	.	.	.	.	.	.
.	.	8d	-in'	.	.	.	.	.	.
4r	.	8d	to-	.	.	.	.	.	.
.	.	[8d	-night	.	.	.	C	.	.
=145	=145	=145	=145	=145	=145	=145	=145	=145	=145
2r	.	8d]	_	1CM	.	horns	.	211.929	C:maj
.	.	[4.c	_	.	.	.	.	.	.
4dd	Ooh	2c]	_	.	.	.	.	.	.
8cc	_	.	.	.	.	.	.	.	.
[8cc	ah	.	.	.	.	.	.	.	.
=146	=146	=146	=146	=146	=146	=146	=146	=146	=146
1cc_	_	1r	.	1CM	newline	fadeout	.	213.415	C:maj
=147	=147	=147	=147	=147	=147	=147	=147	=147	=147
1cc_	_	1r	.	1CM	.	fadeout	.	214.872	C:maj
=148	=148	=148	=148	=148	=148	=148	=148	=148	=148
1cc_	_	1r	.	1Dm	.	fadeout	.	216.329	D:min
=149	=149	=149	=149	=149	=149	=149	=149	=149	=149
2.cc]	_	1r	.	1CM	.	fadeout	.	217.786	C:maj
8r	.	.	.	.	.	.	.	.	.
[8a	Yeah	.	.	.	.	.	.	.	.
=150	=150	=150	=150	=150	=150	=150	=150	=150	=150
8a]	_	1r	.	1CM	newline	fadeout	.	219.243	C:maj
4g	_	.	.	.	.	.	.	.	.
16e	yeah	.	.	.	.	.	.	.	.
16d	_	.	.	.	.	.	.	.	.
2c	_	.	.	.	.	.	.	.	.
=151	=151	=151	=151	=151	=151	=151	=151	=151	=151
1r	.	1r	.	1CM	.	fadeout	.	220.711	C:maj
=152	=152	=152	=152	=152	=152	=152	=152	=152	=152
1r	.	1r	.	1Dm	.	fadeout	.	222.18	D:min
=153	=153	=153	=153	=153	=153	=153	=153	=153	=153
1r	.	1r	.	1CM	.	fadeout	.	223.649	C:maj
=154	=154	=154	=154	=154	=154	=154	=154	=154	=154
1r	.	1r	.	1CM	newline	horns voice	.	225.117	C:maj
=155	=155	=155	=155	=155	=155	=155	=155	=155	=155
1r	.	1r	.	1CM	.	horns voice	.	226.337	C:maj
=156	=156	=156	=156	=156	=156	=156	=156	=156	=156
1r	.	1r	.	1Dm	.	horns voice	.	227.556	D:min
=157	=157	=157	=157	=157	=157	=157	=157	=157	=157
1r	.	1r	.	1CM	.	horns voice	.	228.775	C:maj
r;	.	r;	.	1r;	.	r	.	229.994	N.C.
r;	.	r;	.	1r;	.	r	.	234.423	N.C.
*-	*-	*-	*-	*-	*-	*-	*-	*-	*-
!!!BillboardChartDate: 1984/10/27
!!!BillboardPeak: 1
!!!BillboardWeeksOnChart: 24
!!!COC: Wham!
!!!EMD: Had to remove extra measure at end of first chorus. -Nat
!!!EMD: Renamed the "bridge" section prechorus.
!!!ENC: Nathaniel Condit-Schultz
!!!EST: Awating manual error checking and editing.
!!!OTL: Wake Me Up Before You Go-Go
!!!RDF**chordsym: original McGill chord annotation + (implied pitch class set, with bass pitch in first position)
!!!RDF**harmony: **recip + pitch class of root + harmonic quality
!!!RDF**leadinstrument: original McGill primary instrumentation annotation
!!!RDF**phrase: newline = linebreak in original McGill transcription
!!!RDF**timestamp: McGill audio timestamp in seconds
!!!RDT: 2017/01/12/
!!!SampleActualRank: 6
!!!SampleID#: 0542
!!!SampleTargetRank: 6
